X:47
T:Teampall an Glent�inn/ Fermoy Lasses
T:Teampall an Glent�inn
M:4/4
K:D
|:dcAG EFF2|AGG2 EFF2|1dcAG EFF2|A2GE EDD2:|2AGG2 EFF2|A2GE EDAD|:
E/F/G AB =c3B|Add2 efed|dcAG EFGE|1A2GE EDAD:|2A2GE EDD2|
T:Fermoy Lasses
M:4/4     %Meter
L:1/8     %
K:G
|GE E2 BE E2 |GE E2 BcBA |GE E2 BE E2 |AFDF AcBA |
GE E2 BE E2 |GE E2 BcBA |G2 GF GBdB |AFDF AcBA:||:
G2 BG dGBG |G2Bd efg2 |G2 BG dGBG |AFDF AcBA |
G2 BG dGBG |G2 Bd efg2 |gage dedB |AFDF AcBA :|

